static/img/logo.svg

<svg version="1.1" id="Layer_1" xmlns="http://www.w3.org/2000/svg" xmlns:xlink="http://www.w3.org/1999/xlink" x="0px" y="0px"
	 width="100%" viewBox="0 0 192 192" enable-background="new 0 0 192 192" xml:space="preserve">
<path fill="#000000" opacity="1.000000" stroke="none" 
	d="
M142.993423,162.209152 
	C141.053894,168.196396 136.977631,170.279190 131.376373,170.262939 
	C114.217072,170.213135 97.057404,170.282837 79.898201,170.219101 
	C71.546066,170.188080 67.737053,166.304459 67.689842,157.910904 
	C67.636421,148.415207 67.597610,138.917969 67.719177,129.423553 
	C67.759346,126.286255 67.040977,124.673355 63.471031,124.151535 
	C58.409184,123.411629 55.764557,119.623352 55.704254,114.080933 
	C55.611828,105.585480 55.606895,97.087631 55.703896,88.592384 
	C55.736156,85.766754 55.347664,83.556931 52.622921,81.848236 
	C49.607117,79.957016 48.455677,76.797058 48.667187,73.186203 
	C48.777149,71.308861 48.712051,69.227913 51.175972,69.015564 
	C53.569519,68.809280 54.159058,70.603905 54.334015,72.619812 
	C54.419018,73.599236 54.498371,74.656746 54.918552,75.512894 
	C55.726723,77.159599 57.198009,77.877266 59.053310,77.672760 
	C60.914364,77.467613 62.141842,76.470688 62.532825,74.626801 
	C62.738789,73.655479 62.641270,72.616959 62.871078,71.654198 
	C63.244625,70.089249 64.091866,68.859192 65.922310,68.928078 
	C67.798264,68.998657 68.531410,70.382385 68.663406,71.945763 
	C69.005630,75.999031 67.957039,79.732864 64.466316,82.035728 
	C61.837204,83.770157 61.260563,85.898056 61.309090,88.769798 
	C61.435722,96.264511 61.358570,103.762764 61.350372,111.259590 
	C61.348358,113.102783 61.334564,114.938835 62.458729,116.540810 
	C63.258034,117.679840 64.248169,118.581024 65.728271,118.496407 
	C67.569351,118.391159 67.419868,116.871582 67.764946,115.587990 
	C69.420296,109.430603 72.729591,107.018089 79.306747,106.696831 
	C83.333122,106.500153 87.496384,107.464294 91.220467,106.081932 
	C91.726173,103.639084 90.308060,103.200996 89.103432,102.705437 
	C85.442314,101.199303 83.062378,98.595383 82.297668,94.697151 
	C81.859489,92.463417 80.542564,91.412392 78.482933,90.633072 
	C73.956795,88.920479 72.148788,85.311707 72.813606,80.685387 
	C73.441177,76.318237 76.391045,74.117340 80.686523,73.647644 
	C83.978714,73.287643 86.289452,71.343590 87.522705,68.535278 
	C88.708618,65.834785 86.757126,64.026299 84.893707,62.147713 
	C80.994453,58.216743 81.253372,52.862907 85.197586,49.327377 
	C88.532875,46.337677 94.315598,46.581776 97.468208,49.845341 
	C100.865425,53.362125 100.770699,58.775620 97.083984,62.378857 
	C95.650909,63.779488 93.575966,64.868912 94.579750,67.240028 
	C95.506348,69.428795 97.759163,68.593185 99.478348,68.630821 
	C103.974258,68.729248 108.473877,68.675964 112.971855,68.651283 
	C114.284561,68.644081 115.818169,68.841286 116.418800,67.283783 
	C117.042328,65.666916 116.255096,64.417282 114.971535,63.382645 
	C114.200165,62.760868 113.433182,62.080074 112.848358,61.289577 
	C110.046326,57.502171 110.488823,52.611473 113.844696,49.533680 
	C117.246498,46.413761 122.870735,46.485161 126.115486,49.689461 
	C129.219360,52.754631 129.517242,57.999443 126.789917,61.564644 
	C121.390152,68.623314 122.555824,71.778595 131.299530,73.741234 
	C135.361755,74.653069 137.684677,77.271133 138.208694,81.285721 
	C138.743713,85.384674 136.923828,88.577141 133.180939,90.153145 
	C130.467957,91.295486 128.821442,92.766304 128.308975,95.750282 
	C127.795593,98.739639 125.610817,100.604012 123.093079,102.109169 
	C121.763771,102.903854 119.708595,102.904991 119.552330,105.058464 
	C120.052231,106.891396 121.538643,106.666748 122.818726,106.691124 
	C125.816429,106.748207 128.818192,106.644539 131.813919,106.741737 
	C138.253220,106.950645 141.245483,109.224808 143.120361,115.304024 
	C143.544449,116.679146 143.267410,118.595505 145.447693,118.483406 
	C147.611404,118.372162 148.591049,116.837288 148.925629,114.847580 
	C149.563873,111.051773 149.701935,107.233574 149.459305,103.392113 
	C149.291458,100.734413 149.045883,98.065590 149.132065,95.411377 
	C149.290909,90.519295 149.332886,85.977325 144.629395,82.561676 
	C142.155640,80.765244 141.935471,77.330833 142.303406,74.236015 
	C142.470276,72.832359 143.110870,71.591705 144.652222,71.366455 
	C146.472137,71.100502 147.382095,72.345436 147.899445,73.850883 
	C148.165375,74.624733 148.162216,75.488884 148.302582,76.308479 
	C148.718170,78.735321 150.166763,80.475914 152.585129,80.372604 
	C155.001999,80.269371 156.340942,78.375641 156.593887,75.969131 
	C156.822662,73.792572 156.731323,71.039162 159.765427,71.378403 
	C163.031464,71.743576 162.306259,74.771942 162.277634,77.005447 
	C162.236206,80.237427 160.696030,82.899780 158.049652,84.538506 
	C155.656677,86.020302 155.280762,87.954247 155.304016,90.428146 
	C155.376068,98.090851 155.381195,105.755356 155.299805,113.417976 
	C155.233551,119.654488 152.663864,123.095032 146.571442,124.312042 
	C143.617752,124.902069 143.315964,126.422226 143.312485,128.822372 
	C143.296585,139.813858 143.186829,150.805191 142.993423,162.209152 
M114.002853,117.405319 
	C111.700706,113.799278 108.318604,113.183746 104.222374,112.820702 
	C96.400925,112.127502 90.001648,115.684402 83.475746,118.723259 
	C79.402168,120.620163 77.787270,124.831322 78.115479,129.244705 
	C78.408646,133.186798 80.445312,136.632462 82.441948,140.584930 
	C96.838264,125.166191 111.704086,124.188225 127.029343,138.141846 
	C128.770599,136.403778 128.704117,134.438492 127.264923,133.520859 
	C121.255844,129.689438 120.099617,122.003181 114.002853,117.405319 
M108.626877,97.574493 
	C110.290733,97.570198 111.955063,97.590263 113.618355,97.557472 
	C121.660393,97.398895 122.743286,96.294212 122.782303,88.213928 
	C122.794357,85.718246 122.705376,83.220276 122.783455,80.727135 
	C122.913460,76.576042 120.851128,74.463692 116.818108,74.421913 
	C109.165443,74.342621 101.510887,74.372337 93.857826,74.438446 
	C90.246536,74.469635 88.325935,76.386513 88.291046,80.039520 
	C88.254501,83.865776 88.313652,87.693367 88.243370,91.518768 
	C88.173683,95.311638 90.140358,96.936218 93.748627,97.047997 
	C98.400505,97.192116 103.050552,97.395477 108.626877,97.574493 
M101.903557,103.298889 
	C100.327515,103.615318 98.036217,102.510658 97.688210,105.357628 
	C102.024826,107.599106 110.427048,107.270699 113.284859,104.554916 
	C109.917099,102.251930 106.213966,103.714241 101.903557,103.298889 
M111.575607,138.585495 
	C113.130730,138.122131 113.502762,137.271484 112.232330,136.126953 
	C109.149231,133.349350 101.666496,134.028046 97.913719,137.843399 
	C102.460693,138.866089 106.871223,136.719727 111.575607,138.585495 
z"/>
<path fill="#000000" opacity="1.000000" stroke="none" 
	d="
M111.449173,87.877762 
	C113.424408,88.636185 114.439819,89.703796 113.838097,91.452087 
	C113.346512,92.880348 112.021828,93.307510 110.603630,93.315353 
	C107.110062,93.334671 103.615776,93.363747 100.122925,93.311905 
	C98.508301,93.287949 97.064575,92.716820 96.926125,90.854919 
	C96.770058,88.756111 98.165741,87.817230 100.031418,87.772980 
	C103.688431,87.686234 107.349586,87.774368 111.449173,87.877762 
z"/>
<path fill="#000000" opacity="1.000000" stroke="none" 
	d="
M95.723206,78.682617 
	C97.920799,80.698204 97.743324,82.427551 95.414299,83.584015 
	C94.006104,84.283234 92.599258,83.430664 92.187363,82.088959 
	C91.371643,79.431862 92.865494,78.435616 95.723206,78.682617 
z"/>
<path fill="#000000" opacity="1.000000" stroke="none" 
	d="
M118.082970,83.007706 
	C115.335236,84.344070 113.955292,83.455330 113.812836,80.856339 
	C113.725021,79.254150 114.870644,78.316833 116.347214,78.549919 
	C118.819099,78.940132 119.743645,80.376595 118.082970,83.007706 
z"/>
</svg>

<svg xmlns="http://www.w3.org/2000/svg" xml:space="preserve" viewBox="0 0 192 192"><path d="M142.993 162.21c-1.94 5.986-6.015 8.07-11.617 8.053-17.159-.05-34.319.02-51.478-.044-8.352-.03-12.16-3.915-12.208-12.308-.054-9.496-.092-18.993.03-28.487.04-3.138-.679-4.75-4.249-5.272-5.062-.74-7.706-4.529-7.767-10.071-.092-8.496-.097-16.993 0-25.489.032-2.825-.356-5.035-3.081-6.744-3.016-1.891-4.167-5.05-3.956-8.662.11-1.877.045-3.958 2.509-4.17 2.394-.207 2.983 1.588 3.158 3.604.085.98.164 2.037.585 2.893.808 1.647 2.279 2.364 4.134 2.16 1.861-.205 3.089-1.202 3.48-3.046.206-.972.108-2.01.338-2.973.374-1.565 1.22-2.795 3.051-2.726 1.876.07 2.61 1.454 2.741 3.018.343 4.053-.706 7.787-4.197 10.09-2.629 1.734-3.205 3.862-3.157 6.734.127 7.495.05 14.993.041 22.49-.002 1.843-.015 3.679 1.109 5.28.799 1.14 1.79 2.041 3.27 1.956 1.84-.105 1.69-1.624 2.036-2.908 1.655-6.157 4.965-8.57 11.542-8.891 4.026-.197 8.19.767 11.913-.615.506-2.443-.912-2.881-2.117-3.377-3.66-1.506-6.04-4.11-6.805-8.008-.439-2.234-1.755-3.285-3.815-4.064-4.526-1.713-6.334-5.321-5.67-9.948.628-4.367 3.578-6.568 7.874-7.037 3.292-.36 5.602-2.304 6.836-5.113 1.186-2.7-.766-4.509-2.63-6.387-3.899-3.931-3.64-9.285.305-12.82 3.335-2.99 9.118-2.746 12.27.517 3.397 3.517 3.303 8.93-.384 12.534-1.433 1.4-3.508 2.49-2.504 4.861.926 2.189 3.18 1.353 4.898 1.39 4.496.1 8.996.046 13.494.021 1.313-.007 2.846.19 3.447-1.367.623-1.617-.164-2.867-1.447-3.901-.772-.622-1.539-1.303-2.124-2.093-2.802-3.788-2.36-8.679.997-11.756 3.401-3.12 9.026-3.049 12.27.155 3.104 3.066 3.402 8.31.675 11.876-5.4 7.058-4.234 10.214 4.51 12.176 4.062.912 6.385 3.53 6.909 7.545.535 4.099-1.285 7.291-5.028 8.867-2.713 1.142-4.36 2.613-4.872 5.597-.513 2.99-2.698 4.854-5.216 6.36-1.33.794-3.384.795-3.54 2.948.5 1.833 1.986 1.609 3.266 1.633 2.997.057 6-.046 8.995.05 6.44.21 9.431 2.484 11.306 8.563.424 1.375.147 3.292 2.328 3.18 2.163-.112 3.143-1.647 3.478-3.636.638-3.796.776-7.614.533-11.456-.168-2.658-.413-5.326-.327-7.98.159-4.893.2-9.435-4.503-12.85-2.473-1.797-2.694-5.231-2.326-8.326.167-1.404.808-2.644 2.35-2.87 1.82-.265 2.73.98 3.246 2.485.266.774.263 1.638.404 2.457.415 2.427 1.864 4.168 4.282 4.065 2.417-.104 3.756-1.997 4.009-4.404.229-2.176.137-4.93 3.171-4.59 3.266.365 2.541 3.393 2.513 5.626-.042 3.232-1.582 5.895-4.228 7.534-2.393 1.481-2.77 3.415-2.746 5.89.072 7.662.077 15.326-.004 22.989-.066 6.236-2.636 9.677-8.729 10.894-2.953.59-3.255 2.11-3.259 4.51a2141 2141 0 0 1-.319 33.387m-28.99-44.804c-2.302-3.606-5.684-4.221-9.78-4.584-7.822-.693-14.221 2.863-20.747 5.902-4.074 1.897-5.689 6.108-5.36 10.522.293 3.942 2.33 7.387 4.326 11.34 14.396-15.419 29.262-16.397 44.587-2.443 1.742-1.738 1.675-3.704.236-4.621-6.01-3.832-7.165-11.518-13.262-16.116m-5.376-19.83c1.664-.005 3.328.015 4.991-.018 8.042-.158 9.125-1.263 9.164-9.343.012-2.496-.077-4.994.001-7.487.13-4.151-1.932-6.263-5.965-6.305-7.653-.08-15.307-.05-22.96.016-3.611.032-5.532 1.949-5.567 5.602-.036 3.826.023 7.653-.048 11.479-.07 3.793 1.897 5.417 5.506 5.529 4.652.144 9.302.347 14.878.526m-6.723 5.725c-1.576.316-3.868-.788-4.216 2.059 4.337 2.241 12.739 1.913 15.597-.803-3.368-2.303-7.071-.84-11.381-1.256m9.672 35.286c1.555-.463 1.927-1.314.656-2.458-3.083-2.778-10.566-2.099-14.318 1.716 4.547 1.023 8.957-1.123 13.662.742"/><path d="M111.45 87.878c1.974.758 2.99 1.826 2.388 3.574-.491 1.428-1.816 1.856-3.234 1.863-3.494.02-6.988.049-10.481-.003-1.615-.024-3.058-.595-3.197-2.457-.156-2.099 1.24-3.038 3.105-3.082 3.657-.087 7.319.001 11.418.105M95.723 78.683c2.198 2.015 2.02 3.745-.309 4.901-1.408.7-2.815-.153-3.227-1.495-.815-2.657.678-3.653 3.536-3.406M118.083 83.008c-2.748 1.336-4.128.447-4.27-2.152-.088-1.602 1.058-2.54 2.534-2.306 2.472.39 3.397 1.827 1.736 4.458"/></svg>
